brandFactory_export/3.Masa/Candado abierto_3Masa.svg

<?xml version="1.0" encoding="UTF-8"?>
<svg width="24px" height="24px" viewBox="0 0 24 24" version="1.1" xmlns="http://www.w3.org/2000/svg" xmlns:xlink="http://www.w3.org/1999/xlink">
    <title>3.Masa/Candado abierto_3Masa</title>
    <g id="Symbols" stroke="none" stroke-width="1" fill="none" fill-rule="evenodd">
        <g id="3.Masa/Candado-abierto_3Masa" fill="#5CB615" fill-rule="nonzero">
            <path d="M20.7411765,10.9142857 C20.7445378,10.9142857 20.7411765,17.1092437 20.7445378,20.1647059 C20.7445378,21.2403361 20.4184874,22.0941176 19.7697479,22.7058824 C18.697479,23.7210084 17.1478992,23.6201681 17.0840336,23.6168067 L6.62352941,23.6235294 C5.44033613,23.6235294 4.51596639,23.2705882 3.87731092,22.5747899 C2.94285714,21.5563025 3.0302521,20.1882353 3.03361345,20.1310924 L3.0302521,10.8436975 C3.0302521,9.75798319 3.36302521,8.89747899 4.01512605,8.28907563 C4.62352941,7.7210084 5.38319328,7.51596639 5.93445378,7.44537815 L5.93445378,6.01680672 C5.93445378,1.62016807 8.86218487,0.0268907563 11.6016807,0 C11.7764706,0 11.9613445,0.00336134454 12.1226891,0.00336134454 C14.3277311,0.0571428571 16.9394958,1.2 17.6453782,4.2487395 C17.7361345,4.63865546 17.497479,5.02857143 17.1142857,5.11932773 C16.7344538,5.21008403 16.3478992,4.97142857 16.2537815,4.58151261 C15.5983193,1.7512605 12.8991597,1.46890756 12.0857143,1.4487395 C11.9411765,1.44537815 11.7697479,1.44537815 11.6117647,1.44537815 C10.3344538,1.45546218 7.35966387,1.92605042 7.35966387,6.01344538 L7.35966387,7.41176471 C9.3092437,7.40840336 14.6067227,7.40168067 17.1277311,7.40168067 C18.3344538,7.40168067 19.2722689,7.75798319 19.9142857,8.46386555 C20.8453782,9.48907563 20.7445378,10.8504202 20.7411765,10.9142857 L20.7411765,10.9142857 Z M11.8403361,17.1159664 L11.5915966,17.1159664 C9.96470588,17.092437 9.96470588,15.8117647 9.96470588,15.3310924 C9.96470588,14.8537815 9.96470588,13.5831933 11.5613445,13.5663866 L11.6117647,13.5663866 C11.6789916,13.5663866 11.7495798,13.5697479 11.8134454,13.5697479 C13.4638655,13.610084 13.4638655,14.9210084 13.4638655,15.3512605 C13.4672269,15.8252101 13.4672269,17.0890756 11.8403361,17.1159664 L11.8403361,17.1159664 Z M11.8504202,12.1243697 C11.7798319,12.1210084 11.6957983,12.1210084 11.6151261,12.1210084 L11.5512605,12.1210084 C10.912605,12.1277311 8.5394958,12.3495798 8.5394958,15.3310924 C8.5394958,18.3226891 10.9361345,18.5546218 11.5747899,18.5647059 L11.8672269,18.5647059 C12.4722689,18.5546218 14.902521,18.3226891 14.902521,15.3512605 C14.8957983,12.389916 12.4722689,12.1411765 11.8504202,12.1243697 L11.8504202,12.1243697 Z" id="Candado-abierto_3Masa"></path>
        </g>
    </g>
</svg>

<svg width="24" height="24" viewBox="0 0 24 24" xmlns="http://www.w3.org/2000/svg"><path d="M20.741 10.914c.004 0 0 6.195.004 9.25 0 1.076-.327 1.93-.975 2.542-1.073 1.015-2.622.914-2.686.91l-10.46.008c-1.184 0-2.108-.353-2.747-1.05-.934-1.018-.847-2.386-.843-2.443l-.004-9.287c0-1.086.333-1.947.985-2.555.609-.568 1.368-.773 1.92-.844V6.017C5.934 1.62 8.861.027 11.601 0c.174 0 .36.003.52.003C14.329.057 16.94 1.2 17.646 4.25c.091.39-.148.78-.53.87a.719.719 0 01-.861-.537c-.656-2.83-3.355-3.113-4.168-3.133-.145-.004-.316-.004-.474-.004-1.278.01-4.252.481-4.252 4.568v1.399c1.95-.004 7.247-.01 9.768-.01 1.206 0 2.144.356 2.786 1.062.931 1.025.83 2.386.827 2.45zm-8.9 6.202h-.25c-1.626-.024-1.626-1.304-1.626-1.785 0-.477 0-1.748 1.596-1.765h.05c.068 0 .139.004.202.004 1.65.04 1.65 1.351 1.65 1.781.004.474.004 1.738-1.623 1.765zm.01-4.992c-.071-.003-.155-.003-.236-.003h-.064c-.638.007-3.012.229-3.012 3.21 0 2.992 2.397 3.224 3.036 3.234h.292c.605-.01 3.036-.242 3.036-3.214-.007-2.961-2.43-3.21-3.053-3.227z" fill="#5CB615" fill-rule="nonzero"/></svg>
